src/assets/logo.svg

<svg fill="none" height="38" viewBox="0 0 122 38" width="122" xmlns="http://www.w3.org/2000/svg"><path d="m91.0365 30.426v-15.2l-5.9536 11.3191h-2.44l-5.9536-11.3191v15.2h-4.4896v-22.96171h4.8149l6.832 13.06551 6.8971-13.06551h4.7824v22.96171zm9.3115 0v-22.96171h9.793c1.063 0 2.039.22639 2.928.67915.911.43118 1.692 1.01331 2.342 1.74639.651.71147 1.161 1.53077 1.529 2.45787.37.9055.553 1.8218.553 2.7489 0 .9702-.173 1.9189-.52 2.846-.347.9055-.835 1.714-1.464 2.4255s-1.388 1.2829-2.277 1.7141c-.889.4311-1.865.6468-2.928.6468h-5.466v7.697zm4.49-11.6102h5.205c.825 0 1.508-.3342 2.05-1.0026.564-.6684.846-1.5739.846-2.7166 0-.5821-.087-1.0995-.261-1.5523-.173-.4744-.401-.8732-.683-1.1966-.281-.3234-.618-.5605-1.008-.7115-.369-.1724-.749-.2587-1.139-.2587h-5.01z" fill="#336319"/><path d="m49.6133 7.46429h17.1387l-1.9588 3.86871h-12.9764z" fill="#629e41"/><path clip-rule="evenodd" d="m58.1827 20.0689 8.5693-12.60461v3.71321c0 1.892-.5608 3.7423-1.6122 5.3194l-3.5166 5.275c-.9857-.7457-2.2173-1.1886-3.5533-1.1886-1.2684 0-2.4426.3992-3.4018 1.0777l-3.4426-5.1641c-1.0514-1.5771-1.6122-3.4274-1.6122-5.3194v-3.71321z" fill="#336319" fill-rule="evenodd"/><path d="m58.0699 30.6111c-2.3538 0-4.262-1.8904-4.262-4.2223 0-2.3318 1.9082-4.2222 4.262-4.2222s4.262 1.8904 4.262 4.2222c0 2.3319-1.9082 4.2223-4.262 4.2223z" fill="#ffd600"/><path d="m17.036 30.7494c-1.6917 0-3.2316-.3234-4.6197-.9702-1.3664-.6684-2.54846-1.5416-3.54615-2.6196-.976-1.0996-1.73511-2.3501-2.27734-3.7515-.54222-1.4014-.81333-2.8352-.81333-4.3013 0-1.5307.28196-2.9969.84587-4.3983.5856-1.4013 1.37724-2.6411 2.37493-3.7191 1.01942-1.07799 2.22312-1.92967 3.61122-2.55489 1.3881-.64681 2.8954-.97022 4.5221-.97022 1.67 0 3.1883.34497 4.5547 1.0349 1.3881.66839 2.5701 1.55231 3.5461 2.65191s1.7351 2.3501 2.2773 3.7515c.5423 1.4014.8134 2.8244.8134 4.2689 0 1.5308-.282 2.9969-.8459 4.3983-.5639 1.3799-1.3447 2.6088-2.3424 3.6868-.9977 1.0565-2.1905 1.9081-3.5787 2.5549-1.3881.6252-2.8954.9379-4.5221.9379zm-6.7019-11.6426c0 .9918.1519 1.9512.4555 2.8783.3037.9272.7374 1.7464 1.3013 2.4579.5856.7115 1.2906 1.2829 2.1147 1.7141.8459.4311 1.8002.6468 2.8629.6468 1.0845 0 2.0388-.2157 2.863-.6468.8458-.4528 1.5508-1.0457 2.1146-1.7788.5856-.733 1.0194-1.5523 1.3014-2.4578.3036-.9272.4554-1.865.4554-2.8137 0-.9918-.1626-1.9511-.488-2.8783-.3036-.9271-.7482-1.7463-1.3338-2.4578-.5639-.7115-1.2688-1.2721-2.1147-1.6817-.8241-.4312-1.7568-.6468-2.7979-.6468-1.0844 0-2.0496.2263-2.8954.6791-.8459.4312-1.5508 1.0133-2.1147 1.7464-.5639.7115-.9977 1.5308-1.3013 2.4579-.282.9055-.423 1.8326-.423 2.7812zm21.435 11.4809v-22.9617h4.4896v19.0485h11.777v3.9132z" fill="#336319"/></svg>

<svg width="122" height="38" viewBox="0 0 122 38" fill="none" xmlns="http://www.w3.org/2000/svg">
  <path d="M91.0365 30.426V15.226L85.0829 26.5451H82.6429L76.6893 15.226V30.426H72.1997V7.46429H77.0146L83.8466 20.5298L90.7437 7.46429H95.5261V30.426H91.0365ZM100.348 30.426V7.46429H110.141C111.204 7.46429 112.18 7.69068 113.069 8.14344C113.98 8.57462 114.761 9.15675 115.411 9.88983C116.062 10.6013 116.572 11.4206 116.94 12.3477C117.31 13.2532 117.493 14.1695 117.493 15.0966C117.493 16.0668 117.32 17.0155 116.973 17.9426C116.626 18.8481 116.138 19.6566 115.509 20.3681C114.88 21.0796 114.121 21.651 113.232 22.0822C112.343 22.5133 111.367 22.729 110.304 22.729H104.838V30.426H100.348ZM104.838 18.8158H110.043C110.868 18.8158 111.551 18.4816 112.093 17.8132C112.657 17.1448 112.939 16.2393 112.939 15.0966C112.939 14.5145 112.852 13.9971 112.678 13.5443C112.505 13.0699 112.277 12.6711 111.995 12.3477C111.714 12.0243 111.377 11.7872 110.987 11.6362C110.618 11.4638 110.238 11.3775 109.848 11.3775H104.838V18.8158Z" fill="#336319" />
  <path d="M49.6133 7.46429H66.752L64.7932 11.333H51.8168L49.6133 7.46429Z" fill="#629E41" />
  <path fill-rule="evenodd" clip-rule="evenodd" d="M58.1827 20.0689L66.752 7.46429V11.1775C66.752 13.0695 66.1912 14.9198 65.1398 16.4969L61.6232 21.7719C60.6375 21.0262 59.4059 20.5833 58.0699 20.5833C56.8015 20.5833 55.6273 20.9825 54.6681 21.661L51.2255 16.4969C50.1741 14.9198 49.6133 13.0695 49.6133 11.1775V7.46429L58.1827 20.0689Z" fill="#336319" />
  <path d="M58.0699 30.6111C55.7161 30.6111 53.8079 28.7207 53.8079 26.3888C53.8079 24.057 55.7161 22.1666 58.0699 22.1666C60.4237 22.1666 62.3319 24.057 62.3319 26.3888C62.3319 28.7207 60.4237 30.6111 58.0699 30.6111Z" fill="#FFD600" />
  <path d="M17.036 30.7494C15.3443 30.7494 13.8044 30.426 12.4163 29.7792C11.0499 29.1108 9.86784 28.2376 8.87015 27.1596C7.89415 26.06 7.13504 24.8095 6.59281 23.4081C6.05059 22.0067 5.77948 20.5729 5.77948 19.1068C5.77948 17.5761 6.06144 16.1099 6.62535 14.7085C7.21095 13.3072 8.00259 12.0674 9.00028 10.9894C10.0197 9.91141 11.2234 9.05973 12.6115 8.43451C13.9996 7.7877 15.5069 7.46429 17.1336 7.46429C18.8036 7.46429 20.3219 7.80926 21.6883 8.49919C23.0764 9.16758 24.2584 10.0515 25.2344 11.1511C26.2104 12.2507 26.9695 13.5012 27.5117 14.9026C28.054 16.304 28.3251 17.727 28.3251 19.1715C28.3251 20.7023 28.0431 22.1684 27.4792 23.5698C26.9153 24.9497 26.1345 26.1786 25.1368 27.2566C24.1391 28.3131 22.9463 29.1647 21.5581 29.8115C20.17 30.4367 18.6627 30.7494 17.036 30.7494ZM10.3341 19.1068C10.3341 20.0986 10.486 21.058 10.7896 21.9851C11.0933 22.9123 11.527 23.7315 12.0909 24.443C12.6765 25.1545 13.3815 25.7259 14.2056 26.1571C15.0515 26.5882 16.0058 26.8039 17.0685 26.8039C18.153 26.8039 19.1073 26.5882 19.9315 26.1571C20.7773 25.7043 21.4823 25.1114 22.0461 24.3783C22.6317 23.6453 23.0655 22.826 23.3475 21.9205C23.6511 20.9933 23.8029 20.0555 23.8029 19.1068C23.8029 18.115 23.6403 17.1557 23.3149 16.2285C23.0113 15.3014 22.5667 14.4822 21.9811 13.7707C21.4172 13.0592 20.7123 12.4986 19.8664 12.089C19.0423 11.6578 18.1096 11.4422 17.0685 11.4422C15.9841 11.4422 15.0189 11.6685 14.1731 12.1213C13.3272 12.5525 12.6223 13.1346 12.0584 13.8677C11.4945 14.5792 11.0607 15.3985 10.7571 16.3256C10.4751 17.2311 10.3341 18.1582 10.3341 19.1068ZM31.7691 30.5877V7.626H36.2587V26.6745H48.0357V30.5877H31.7691Z" fill="#336319" />
</svg>
